static/icons/twitter.svg

<svg xmlns="http://www.w3.org/2000/svg" viewBox="0 0 24 24" fill="currentColor"><path d="M15.3499 5.55005C13.7681 5.55005 12.4786 6.81809 12.4504 8.39658L12.4223 9.97162C12.4164 10.3029 12.143 10.5667 11.8117 10.5608C11.7881 10.5604 11.7646 10.5586 11.7413 10.5554L10.1805 10.3426C8.12699 10.0625 6.15883 9.11736 4.27072 7.54411C3.67275 10.8538 4.84 13.1472 7.65342 14.916L9.40041 16.0142C9.68095 16.1906 9.7654 16.561 9.58903 16.8415C9.54861 16.9058 9.49636 16.9619 9.43504 17.0067L7.84338 18.1696C8.78973 18.229 9.68938 18.1875 10.435 18.0387C15.1526 17.0973 18.2897 13.547 18.2897 7.69109C18.2897 7.213 17.2774 5.55005 15.3499 5.55005ZM10.4507 8.3609C10.4983 5.69584 12.6735 3.55005 15.3499 3.55005C16.7132 3.55005 17.9465 4.10683 18.8348 5.0054C19.5462 5.00005 20.1514 5.17991 21.5035 4.35967C21.1693 6.00005 21.0034 6.71201 20.2897 7.69109C20.2897 15.3326 15.5926 19.0489 10.8264 20C7.5587 20.6522 2.80646 19.5815 1.44531 18.1587C2.13874 18.1054 4.95928 17.802 6.58895 16.6092C5.20994 15.6987 -0.278631 12.4681 3.32772 3.78642C5.02119 5.76307 6.73797 7.10855 8.47807 7.82286C9.63548 8.29798 9.91978 8.2885 10.4507 8.3609Z"></path></svg>

<svg xmlns="http://www.w3.org/2000/svg" fill="currentColor" viewBox="0 0 24 24"><path d="M15.3 5.6a3 3 0 0 0-2.8 2.8V10a.6.6 0 0 1-.8.6l-1.5-.3q-3-.3-6-2.8-.8 4.9 3.5 7.4L9.4 16a.6.6 0 0 1 0 1l-1.6 1.2q1.5 0 2.6-.2c4.8-.9 7.9-4.5 7.9-10.3 0-.5-1-2.1-3-2.1m-4.8 2.8A4.9 4.9 0 0 1 18.8 5c.7 0 1.4.2 2.7-.6a7 7 0 0 1-1.2 3.3c0 7.6-4.7 11.3-9.5 12.3-3.2.7-8-.4-9.4-1.8.7 0 3.6-.4 5.2-1.6-1.4-.9-6.9-4.1-3.3-12.8a14 14 0 0 0 5.2 4c1.1.5 1.4.5 2 .6"/></svg>
